X: 313
T: Beyâtî Seyir
C: Rauf Yektâ
O: Turkey
F: http://compmusic.upf.edu/node/140
N: beyati--seyir--semai--1--rauf_yekta
N: makam= beyati
N: form= seyir
N: usul= semai = 3/4
M: 3/4
L: 1/16
K: C _2/4B   
Q: 1/4=120
%%MIDI tuningsystem comma53
c8 d4  | d8 e4  | d8 c4  | B4 A8  | B4 c4 d4  | \
w:   |   |   |   |   | 
e4 f4 e4  | e4 d4 c4  | d8 z4  | A8 f4  | 
w:   |   |   |   | 
e4 f8  | g4 a4 g4  | f4 e8  | f4 e4 f4  | g4 f4 e4  | \
w:   |   |   |   |   | 
d8 e4  | d2e2 d8  | d2c2 B4 c4  | 
w:   |   |   | 
d4 e8  | d8 e4  | d4 c4 B4  | c2d2 c4 d4  | \
w:   |   |   |   | 
e2f2 e4 d4  | c2B2 A4 B4  | c8 B4  | 
w:   |   |   | 
A8 f4  | f4 e8  | d8 e4  | d4 c4 B4  | g4 f4 e4  | \
w:   |   |   |   |   | 
d4 e6d2  | c8 B4  | A8 z4  | |


